X:1
T:Ave Regina coelorum - Soriano
T:James Gibb editions
T:#
%%score [ 1 2 3 4 ]
L:1/8
Q:1/4=130
M:none
K:F
V:1 treble nm="Soprano" snm="S"
V:2 treble nm="Alto" snm="A"
V:3 treble-8 nm="Tenor" snm="T"
V:4 bass nm="Bass" snm="B"
V:1
 x16 x2 ||"^Francesco Soriano\n(1549-1621)""^Ave Regina coelorum"[Q:1/4=200] A8 (G8 | F8) F4 E4 | %3
w: |Re- gi\-|* na coe-|
 (F6 EF G4 F4- | F4 E4) F16 || A6 A2 A4 A4 | B4 d8 c4 | B8 A8 || A12 A4 ||[M:3/2] A8 A4 | %10
w: lo\- * * * *|* * rum,|A- ve Do- mi-|na an- ge-|lo- rum:|Sal- ve|ra- dix,|
[M:3/2] B8 A4 | G12- | G4 G8 | A8 A4 | A8 G4 || G4 F8- E4 ||[M:3/1][Q:1/4=400] F8 c8 B8 | A16 A8 | %18
w: sal- ve|por\-|* ta,|ex qua|mun- do|lux est or-|ta. Gau- de|Vir- go|
 B16 B8 | A16 A8 | G16 G8 | A16 c8 |[M:3/1][Q:1/4=400][Q:1/4=400][Q:1/4=400][Q:1/4=400] B16 B8 | %23
w: glo- ri-|o- sa,|su- per|o- mnes|spe- ci-|
 c16 c8 ||[Q:1/4=200] d8 d4 d4 | d8 d4 A4 | (A8 d8) | G16 || %28
w: o- sa:|Va- le, o|val- de de-|co\- *|ra,|
[Q:1/4=200][Q:1/4=200][Q:1/4=200][Q:1/4=200] =B12 B4 | c4 A4[Q:1/4=196] G8 | %30
w: et pro|no- bis Chri-|
[Q:1/4=192] G4[Q:1/4=188] (c6[Q:1/4=185] B2[Q:1/4=182] A4) | %31
w: stum ex\- * *|
[Q:1/4=180] (G2[Q:1/4=179] F2[Q:1/4=175] F8[Q:1/4=171] E4) |[Q:1/4=170] F16 |] %33
w: o\- * * *|ra.|
V:2
 x16 x2 || C8 C8- | C8 C8 | (C4 D6 CB, A,2 B,2 | C8) C16 || F6 F2 F4 F4 | F4 F6 D2 (F4- | %7
w: |Re- gi\-|* na|coe- lo\- * * * *|* rum,|A- ve Do- mi-|na an- ge- lo\-|
 F4 E4) F8 || E12 E4 ||[M:3/2] E8 F4 |[M:3/2] F8 F4 | D12- | D4 E8 | F8 F4 | F8 D4 || G,4 C4 C8 || %16
w: * * rum:|Sal- ve|ra- dix,|sal- ve|por\-|* ta,|ex qua|mun- do|lux est or-|
[M:3/1] C8 F8 D8 | F16 F8 | F16 F8 | F16 F8 | E16 E8 | F16 E8 |[M:3/1] G16 G8 | E16 E8 || %24
w: ta. Gau- de|Vir- go|glo- ri-|o- sa,|su- per|o- mnes|spe- ci-|o- sa:|
 F8 F4 F4 | F8 F4 F4 | F16 | E16 || G12 G4 | E4 F4 D4 D2 D2 | (E2 F2 G2 E2 F4) F2 C2 | %31
w: Va- le, o|val- de de-|co-|ra,|et pro|no- bis Chri- stum ex-|o\- * * * * ra, ex-|
 (D6 A,2 C8) | C16 |] %33
w: o\- * *|ra.|
V:3
 x16 x2 || F8 (G8 | A8) A4 G4 | (A4 B6 A2 A2 GF | G8) A16 || c6 c2 c4 c4 | d8 B4 F4 | B8 c8 || %8
w: |Re- gi\-|* na coe-|lo\- * * * * *|* rum,|A- ve Do- mi-|na an- ge-|lo- rum:|
 c12 c4 ||[M:3/2] c8 c4 |[M:3/2][K:treble-8] d8 c4- | c4 (=B2 A2 B4- | B4) c8 | c8 c4 | d8 =B4 || %15
w: Sal- ve|ra- dix,|sal- ve|* por\- * *|* ta,|ex qua|mun- do|
 c4 A4 G8 ||[M:3/1][K:treble-8] F8 A8 B8 | c16 c8 | d16 d8 | c16 c8 | c16 c8 | c16 c8 | %22
w: lux est or-|ta. Gau- de|Vir- go|glo- ri-|o- sa,|su- per|o- mnes|
[M:3/1][K:treble-8] d16 d8 | c16 G8 || B8 B4 B4 | B8 A4 d4- | d4 (c8 =B4) | c16 || d12 d4 | %29
w: spe- ci-|o- sa:|Va- le, o|val- de de\-|* co\- *|ra,|et pro|
 c4 c8 B4 | c6 G2 (A2 B2 c2 A2 | B2 A2 A2 GF G8) | A16 |] %33
w: no- bis Chri-|stum ex- o\- * * *||ra.|
V:4
 F,2 E,2 D,2 E,2 C,2 D,2 E,2 F,4 || F,8 (E,8 | F,8) F,4 C,4 | (F,2 E,2 D,2 C,2 B,,2 C,2 D,4 | %4
w: A\- * * * ve * * *|Re- gi\-|* na coe-|lo\- * * * * * *|
 C,8) F,,16 || F,6 F,2 F,4 F,4 | B,,4 B,8 A,4 | G,8 F,8 || A,12 A,4 ||[M:3/2] A,8 F,4 | %10
w: * rum:|A- ve Do- mi-|na an- ge-|lo- rum:|Sal- ve|ra- dix,|
[M:3/2] B,8 F,4 | G,12- | G,4 C,8 | F,8 F,4 | D,8 G,4 || E,4 F,4 C,8 ||[M:3/1] F,,8 F,8 G,8 | %17
w: sal- ve|por\-|* ta,|ex qua|mun- do|lux est or-|ta. Gau- de|
 F,16 F,8 | B,,16 B,,8 | F,16 F,8 | C,16 C,8 | F,16 A,8 |[M:3/1] G,16 G,8 | C,16 C,8 || %24
w: Vir- go|glo- ri-|o- sa,|su- per|o- mnes|spe- ci-|o- sa:|
 B,,8 B,,4 B,,4 | B,,8 D,4 D,4 | (F,6 E,2 D,8) | C,16 || G,12 G,4 | A,4 F,4 G,8 | C,8 F,8 | %31
w: Va- le, o|val- de de-|co\- * *|ra,|et pro|no- bis Chri-|stum ex-|
 (B,,4"^3-" D,4 C,8) | F,,16 |] %33
w: o\- * *|ra.|

